icons/Briefcase_1.svg

<svg width="24" height="24" viewBox="0 0 24 24" fill="none" xmlns="http://www.w3.org/2000/svg">
<path fill-rule="evenodd" clip-rule="evenodd" d="M13.9997,2.25c1.5188,0 2.75,1.23122 2.75,2.75v1.25h2.25c1.5188,0 2.75,1.23122 2.75,2.75v9c0,1.5188 -1.2312,2.75 -2.75,2.75h-14.00001c-1.51878,0 -2.75,-1.2312 -2.75,-2.75v-9c0,-1.51878 1.23122,-2.75 2.75,-2.75h2.25v-1.25c0,-1.51878 1.23122,-2.75 2.75,-2.75zM15.2497,6.25v-1.25c0,-0.69036 -0.5596,-1.25 -1.25,-1.25h-4.00001c-0.69035,0 -1.25,0.55964 -1.25,1.25v1.25zM7.24969,7.75h-2.25c-0.69035,0 -1.25,0.55964 -1.25,1.25v9c0,0.6904 0.55965,1.25 1.25,1.25h14.00001c0.6904,0 1.25,-0.5596 1.25,-1.25v-9c0,-0.69036 -0.5596,-1.25 -1.25,-1.25h-2.25h-0.75h-8.00001z" fill="#002B51"/>
</svg>

<svg width="24" height="24" viewBox="0 0 24 24" fill="none" xmlns="http://www.w3.org/2000/svg">
<path fill-rule="evenodd" clip-rule="evenodd" d="M9.99969 2.25C8.48091 2.25 7.24969 3.48122 7.24969 5V6.25H4.99969C3.48091 6.25 2.24969 7.48122 2.24969 9V18C2.24969 19.5188 3.48091 20.75 4.99969 20.75H18.9997C20.5185 20.75 21.7497 19.5188 21.7497 18V9C21.7497 7.48122 20.5185 6.25 18.9997 6.25H16.7497V5C16.7497 3.48122 15.5185 2.25 13.9997 2.25H9.99969ZM15.2497 6.25V5C15.2497 4.30964 14.6901 3.75 13.9997 3.75H9.99969C9.30934 3.75 8.74969 4.30964 8.74969 5V6.25H15.2497ZM7.24969 7.75H4.99969C4.30934 7.75 3.74969 8.30964 3.74969 9V18C3.74969 18.6904 4.30934 19.25 4.99969 19.25H18.9997C19.6901 19.25 20.2497 18.6904 20.2497 18V9C20.2497 8.30964 19.6901 7.75 18.9997 7.75H16.7497H15.9997H7.99969H7.24969Z" fill="#002B51"/>
</svg>
